X: 1
T: Johnny Mcgill
T: Come Under My Plaidie
T: Contentment is Wealth
M:6/8
L:1/8
K: G
g \
| "G"dBB BAB | dBB B2g | dBB BAB | "Em"GEE E2g \
| "G"dBB BAG | dBB BAG | "D"AGA "B"BAB | "Em"GEE E2 :|
|: d \
| "G"gfg "D"aga | "G"bge dBd | gfg "D"aga | "Em"bge e2g/a/ \
| "G"bgb "D"afa | "C"geg "G"dBG | "D"AGA "B"BAB | "Em"GEE E2 :|
